assets/illustrations/multisize/48/vsdx.svg

<svg id="036a45c6-d9d6-484c-93eb-80b2b8d4550b" data-name="ICONS" xmlns="http://www.w3.org/2000/svg" xmlns:xlink="http://www.w3.org/1999/xlink" viewBox="0 0 48 48"><defs><linearGradient id="7243db5e-1acc-4477-aedf-5efae789c32a" x1="8.58668" y1="5.86411" x2="42.48928" y2="46.26765" gradientUnits="userSpaceOnUse"><stop offset="0" stop-color="#fff" stop-opacity="0"/><stop offset="0.86247" stop-color="#5e5e5e" stop-opacity="0.06315"/><stop offset="1" stop-opacity="0.1"/></linearGradient><linearGradient id="95805919-8f63-4940-9a65-186b1655bdb8" x1="38" y1="16.90625" x2="38" y2="14.08751" gradientUnits="userSpaceOnUse"><stop offset="0" stop-color="#828282" stop-opacity="0"/><stop offset="0.86247" stop-color="#303030" stop-opacity="0.06315"/><stop offset="1" stop-opacity="0.1"/></linearGradient><linearGradient id="d88ba9b5-a551-449f-96eb-7caeafa402a4" x1="31.27" y1="12.23" x2="37.23606" y2="6.26394" gradientUnits="userSpaceOnUse"><stop offset="0" stop-color="#fff" stop-opacity="0"/><stop offset="0.44604" stop-color="#fff" stop-opacity="0.00799"/><stop offset="0.63551" stop-color="#fff" stop-opacity="0.03616"/><stop offset="0.77636" stop-color="#fff" stop-opacity="0.08493"/><stop offset="0.8924" stop-color="#fff" stop-opacity="0.15385"/><stop offset="0.99328" stop-color="#fff" stop-opacity="0.24291"/><stop offset="1" stop-color="#fff" stop-opacity="0.25"/></linearGradient><linearGradient id="3164fabf-8bb1-4bdd-8d62-b509cf405bc7" x1="17.75381" y1="42.91826" x2="18.17734" y2="38.93002" gradientUnits="userSpaceOnUse"><stop offset="0" stop-color="#828282" stop-opacity="0"/><stop offset="0.99719" stop-opacity="0.2"/></linearGradient><linearGradient id="1e2dabe3-3c81-4dd2-beb7-aa7d08986f00" x1="14" y1="39.1875" x2="14" y2="14.75839" gradientUnits="userSpaceOnUse"><stop offset="0" stop-color="#fff" stop-opacity="0"/><stop offset="0.52587" stop-color="#fff" stop-opacity="0.00735"/><stop offset="0.71529" stop-color="#fff" stop-opacity="0.03396"/><stop offset="0.8503" stop-color="#fff" stop-opacity="0.0803"/><stop offset="0.95875" stop-color="#fff" stop-opacity="0.14595"/><stop offset="1" stop-color="#fff" stop-opacity="0.18"/></linearGradient></defs><title>FileTypeIcons_Master_All_NEW</title><polygon points="43 44 13 44 13 4 34 4 43 13 43 44" fill="#fff"/><path d="M34.00049,3H12V45H44V13ZM34,4.5,42.5,13H34ZM43,44H13V4H33V14H43Z" fill="#949494"/><path d="M26,27v5H21V27h5m1-1H20v7h7V26Z" fill="#c8c8c8"/><polygon points="4 17 24 14 24 40 4 37 4 17" fill="#3955a3"/><path d="M36.5,34A2.5,2.5,0,1,1,34,36.5,2.50294,2.50294,0,0,1,36.5,34m0-1A3.5,3.5,0,1,0,40,36.5,3.49985,3.49985,0,0,0,36.5,33Z" fill="#c8c8c8"/><path d="M31.5,18A2.5,2.5,0,1,1,29,20.5,2.50294,2.50294,0,0,1,31.5,18m0-1A3.5,3.5,0,1,0,35,20.5,3.49985,3.49985,0,0,0,31.5,17Z" fill="#c8c8c8"/><polygon points="37 29 27 29 27 30 37 30 37 29 37 29" fill="#c8c8c8"/><polygon points="37 29 36 29 36 34 37 34 37 29 37 29" fill="#c8c8c8"/><polygon points="32 23 31 23 31 30 32 30 32 23 32 23" fill="#c8c8c8"/><path d="M16.5,7a.5.5,0,1,0,.5.5.49971.49971,0,0,0-.5-.5Z" fill="#c8c8c8"/><path d="M19.5,7a.5.5,0,1,0,.5.5.49971.49971,0,0,0-.5-.5Z" fill="#c8c8c8"/><path d="M19.5,10a.5.5,0,1,0,.5.5.49971.49971,0,0,0-.5-.5Z" fill="#c8c8c8"/><path d="M22.5,7a.5.5,0,1,0,.5.5.49971.49971,0,0,0-.5-.5Z" fill="#c8c8c8"/><path d="M25.5,7a.5.5,0,1,0,.5.5.49971.49971,0,0,0-.5-.5Z" fill="#c8c8c8"/><path d="M28.5,7a.5.5,0,1,0,.5.5.49971.49971,0,0,0-.5-.5Z" fill="#c8c8c8"/><path d="M39.5,18a.5.5,0,1,0,.5.5.49971.49971,0,0,0-.5-.5Z" fill="#c8c8c8"/><path d="M39.5,21a.5.5,0,1,0,.5.5.49971.49971,0,0,0-.5-.5Z" fill="#c8c8c8"/><path d="M39.5,24a.5.5,0,1,0,.5.5.49971.49971,0,0,0-.5-.5Z" fill="#c8c8c8"/><path d="M39.5,27a.5.5,0,1,0,.5.5.49971.49971,0,0,0-.5-.5Z" fill="#c8c8c8"/><path d="M39.5,30a.5.5,0,1,0,.5.5.49971.49971,0,0,0-.5-.5Z" fill="#c8c8c8"/><path d="M30.5,39a.5.5,0,1,0,.5.5.49971.49971,0,0,0-.5-.5Z" fill="#c8c8c8"/><path d="M27.5,39a.5.5,0,1,0,.5.5.49971.49971,0,0,0-.5-.5Z" fill="#c8c8c8"/><path d="M19,21,15.33531,33H12.62018L9,21h2.5816l2.2181,8.35146a6.66987,6.66987,0,0,1,.21514,1.19666h.04451a7.51814,7.51814,0,0,1,.23-1.23013L16.49258,21Z" fill="#fff"/><path d="M44,13,34,3H12V45H44Z" fill="url(#7243db5e-1acc-4477-aedf-5efae789c32a)"/><rect x="33" y="14" width="10" height="3" fill="url(#95805919-8f63-4940-9a65-186b1655bdb8)"/><polygon points="12 3 12 4 33 4 33 14 43 14 43 28 44 28 44 13 34 3 12 3" fill="url(#d88ba9b5-a551-449f-96eb-7caeafa402a4)"/><polygon points="24 43 12 43 12 38.2 24 40 24 43" fill="url(#3164fabf-8bb1-4bdd-8d62-b509cf405bc7)"/><polygon points="24 14 4 17 4 37 24 40 24 14" fill="url(#1e2dabe3-3c81-4dd2-beb7-aa7d08986f00)"/></svg>

<?xml version="1.0" encoding="utf-8"?>
<!-- Generator: Adobe Illustrator 21.1.0, SVG Export Plug-In . SVG Version: 6.00 Build 0)  -->
<svg version="1.1" xmlns="http://www.w3.org/2000/svg" xmlns:xlink="http://www.w3.org/1999/xlink" x="0px" y="0px"
	 viewBox="0 0 48 48" enable-background="new 0 0 48 48" xml:space="preserve">
<g id="TEMPLATE" display="none">
	<g display="inline">
		<path fill="#D0D0D0" d="M48,0v48H0V0H48 M49-1h-1H0h-1v1v48v1h1h48h1v-1V0V-1L49-1z"/>
	</g>
	<g display="inline" opacity="0.1">
		<path fill="#FF3A6D" d="M45,3v42H3V3H45 M48,0H0v48h48V0L48,0z"/>
	</g>
</g>
<g id="ICONS">
	<g>
		<polygon fill="#FFFFFF" points="43,44 13,44 13,4 34,4 43,13 		"/>
		<path fill="#949494" d="M34.0005,3H12v42h32V13L34.0005,3z M34,4.5l8.5,8.5H34V4.5z M43,44H13V4h20v10h10V44z"/>
	</g>
	<g>
		<path fill="#C8C8C8" d="M26,27v5h-5v-5H26 M27,26h-7v7h7V26L27,26z"/>
	</g>
	<polygon fill="#3955A3" points="4,17 24,14 24,40 4,37 	"/>
	<g>
		<path fill="#C8C8C8" d="M36.5,34c1.3784,0,2.5,1.1216,2.5,2.5S37.8784,39,36.5,39S34,37.8784,34,36.5S35.1216,34,36.5,34 M36.5,33
			c-1.9331,0-3.5,1.5669-3.5,3.5s1.5669,3.5,3.5,3.5s3.5-1.5669,3.5-3.5S38.4331,33,36.5,33L36.5,33z"/>
	</g>
	<g>
		<path fill="#C8C8C8" d="M31.5,18c1.3784,0,2.5,1.1216,2.5,2.5S32.8784,23,31.5,23S29,21.8784,29,20.5S30.1216,18,31.5,18 M31.5,17
			c-1.9331,0-3.5,1.5669-3.5,3.5s1.5669,3.5,3.5,3.5s3.5-1.5669,3.5-3.5S33.4331,17,31.5,17L31.5,17z"/>
	</g>
	<g>
		<polygon fill="#C8C8C8" points="37,29 27,29 27,30 37,30 37,29 		"/>
	</g>
	<g>
		<polygon fill="#C8C8C8" points="37,29 36,29 36,34 37,34 37,29 		"/>
	</g>
	<g>
		<polygon fill="#C8C8C8" points="32,23 31,23 31,30 32,30 32,23 		"/>
	</g>
	<g>
		<path fill="#C8C8C8" d="M16.5,7C16.2236,7,16,7.2236,16,7.5S16.2236,8,16.5,8S17,7.7764,17,7.5S16.7764,7,16.5,7L16.5,7z"/>
	</g>
	<g>
		<path fill="#C8C8C8" d="M19.5,7C19.2236,7,19,7.2236,19,7.5S19.2236,8,19.5,8S20,7.7764,20,7.5S19.7764,7,19.5,7L19.5,7z"/>
	</g>
	<g>
		<path fill="#C8C8C8" d="M19.5,10c-0.2764,0-0.5,0.2236-0.5,0.5s0.2236,0.5,0.5,0.5s0.5-0.2236,0.5-0.5S19.7764,10,19.5,10L19.5,10
			z"/>
	</g>
	<g>
		<path fill="#C8C8C8" d="M22.5,7C22.2236,7,22,7.2236,22,7.5S22.2236,8,22.5,8S23,7.7764,23,7.5S22.7764,7,22.5,7L22.5,7z"/>
	</g>
	<g>
		<path fill="#C8C8C8" d="M25.5,7C25.2236,7,25,7.2236,25,7.5S25.2236,8,25.5,8S26,7.7764,26,7.5S25.7764,7,25.5,7L25.5,7z"/>
	</g>
	<g>
		<path fill="#C8C8C8" d="M28.5,7C28.2236,7,28,7.2236,28,7.5S28.2236,8,28.5,8S29,7.7764,29,7.5S28.7764,7,28.5,7L28.5,7z"/>
	</g>
	<g>
		<path fill="#C8C8C8" d="M39.5,18c-0.2764,0-0.5,0.2236-0.5,0.5s0.2236,0.5,0.5,0.5s0.5-0.2236,0.5-0.5S39.7764,18,39.5,18L39.5,18
			z"/>
	</g>
	<g>
		<path fill="#C8C8C8" d="M39.5,21c-0.2764,0-0.5,0.2236-0.5,0.5s0.2236,0.5,0.5,0.5s0.5-0.2236,0.5-0.5S39.7764,21,39.5,21L39.5,21
			z"/>
	</g>
	<g>
		<path fill="#C8C8C8" d="M39.5,24c-0.2764,0-0.5,0.2236-0.5,0.5s0.2236,0.5,0.5,0.5s0.5-0.2236,0.5-0.5S39.7764,24,39.5,24L39.5,24
			z"/>
	</g>
	<g>
		<path fill="#C8C8C8" d="M39.5,27c-0.2764,0-0.5,0.2236-0.5,0.5s0.2236,0.5,0.5,0.5s0.5-0.2236,0.5-0.5S39.7764,27,39.5,27L39.5,27
			z"/>
	</g>
	<g>
		<path fill="#C8C8C8" d="M39.5,30c-0.2764,0-0.5,0.2236-0.5,0.5s0.2236,0.5,0.5,0.5s0.5-0.2236,0.5-0.5S39.7764,30,39.5,30L39.5,30
			z"/>
	</g>
	<g>
		<path fill="#C8C8C8" d="M30.5,39c-0.2764,0-0.5,0.2236-0.5,0.5s0.2236,0.5,0.5,0.5s0.5-0.2236,0.5-0.5S30.7764,39,30.5,39L30.5,39
			z"/>
	</g>
	<g>
		<path fill="#C8C8C8" d="M27.5,39c-0.2764,0-0.5,0.2236-0.5,0.5s0.2236,0.5,0.5,0.5s0.5-0.2236,0.5-0.5S27.7764,39,27.5,39L27.5,39
			z"/>
	</g>
	<g>
		<path fill="#FFFFFF" d="M19,21l-3.6647,12h-2.7151L9,21h2.5816l2.2181,8.3515c0.1187,0.4519,0.1903,0.8509,0.2151,1.1967h0.0445
			c0.0345-0.3737,0.1113-0.7837,0.23-1.2301L16.4926,21H19z"/>
	</g>
	<linearGradient id="SVGID_1_" gradientUnits="userSpaceOnUse" x1="8.5867" y1="5.8641" x2="42.4893" y2="46.2676">
		<stop  offset="0" style="stop-color:#FFFFFF;stop-opacity:0"/>
		<stop  offset="0.2264" style="stop-color:#FCFCFC;stop-opacity:0.0226"/>
		<stop  offset="0.3626" style="stop-color:#F4F4F4;stop-opacity:0.0363"/>
		<stop  offset="0.475" style="stop-color:#E6E6E6;stop-opacity:0.0475"/>
		<stop  offset="0.5744" style="stop-color:#D1D1D1;stop-opacity:0.0574"/>
		<stop  offset="0.6652" style="stop-color:#B7B7B7;stop-opacity:0.0665"/>
		<stop  offset="0.7498" style="stop-color:#979797;stop-opacity:0.075"/>
		<stop  offset="0.8297" style="stop-color:#707070;stop-opacity:0.083"/>
		<stop  offset="0.9057" style="stop-color:#444444;stop-opacity:0.0906"/>
		<stop  offset="0.9761" style="stop-color:#121212;stop-opacity:0.0976"/>
		<stop  offset="1" style="stop-color:#000000;stop-opacity:0.1"/>
	</linearGradient>
	<path fill="url(#SVGID_1_)" d="M44,13L34,3H12v42h32V13z"/>
	<linearGradient id="SVGID_2_" gradientUnits="userSpaceOnUse" x1="38" y1="16.9063" x2="38" y2="14.0875">
		<stop  offset="0" style="stop-color:#828282;stop-opacity:0"/>
		<stop  offset="0.2812" style="stop-color:#7F7F7F;stop-opacity:0.0281"/>
		<stop  offset="0.4503" style="stop-color:#777777;stop-opacity:0.045"/>
		<stop  offset="0.5899" style="stop-color:#696969;stop-opacity:0.059"/>
		<stop  offset="0.7133" style="stop-color:#545454;stop-opacity:0.0713"/>
		<stop  offset="0.8259" style="stop-color:#3A3A3A;stop-opacity:0.0826"/>
		<stop  offset="0.9294" style="stop-color:#1A1A1A;stop-opacity:0.0929"/>
		<stop  offset="1" style="stop-color:#000000;stop-opacity:0.1"/>
	</linearGradient>
	<rect x="33" y="14" fill="url(#SVGID_2_)" width="10" height="3"/>
	<linearGradient id="SVGID_3_" gradientUnits="userSpaceOnUse" x1="31.27" y1="12.23" x2="37.2361" y2="6.2639">
		<stop  offset="0" style="stop-color:#FFFFFF;stop-opacity:0"/>
		<stop  offset="0.8537" style="stop-color:#FFFFFF;stop-opacity:0.2134"/>
		<stop  offset="1" style="stop-color:#FFFFFF;stop-opacity:0.25"/>
	</linearGradient>
	<polygon fill="url(#SVGID_3_)" points="12,3 12,4 33,4 33,14 43,14 43,28 44,28 44,13 34,3 	"/>
	<linearGradient id="SVGID_4_" gradientUnits="userSpaceOnUse" x1="17.7538" y1="42.9183" x2="18.1773" y2="38.93">
		<stop  offset="0" style="stop-color:#828282;stop-opacity:0"/>
		<stop  offset="0.1699" style="stop-color:#7E7E7E;stop-opacity:0.0341"/>
		<stop  offset="0.346" style="stop-color:#717171;stop-opacity:0.0694"/>
		<stop  offset="0.5248" style="stop-color:#5D5D5D;stop-opacity:0.1053"/>
		<stop  offset="0.7057" style="stop-color:#404040;stop-opacity:0.1415"/>
		<stop  offset="0.8863" style="stop-color:#1B1B1B;stop-opacity:0.1778"/>
		<stop  offset="0.9972" style="stop-color:#000000;stop-opacity:0.2"/>
	</linearGradient>
	<polygon fill="url(#SVGID_4_)" points="24,43 12,43 12,38.2 24,40 	"/>
	<linearGradient id="SVGID_5_" gradientUnits="userSpaceOnUse" x1="14" y1="39.1875" x2="14" y2="14.7584">
		<stop  offset="0" style="stop-color:#FFFFFF;stop-opacity:0"/>
		<stop  offset="0.8587" style="stop-color:#FFFFFF;stop-opacity:0.1546"/>
		<stop  offset="1" style="stop-color:#FFFFFF;stop-opacity:0.18"/>
	</linearGradient>
	<polygon fill="url(#SVGID_5_)" points="24,14 4,17 4,37 24,40 	"/>
</g>
</svg>
